X:1
T:Title
%%score 1 { 2 | 3 }
L:1/8
Q:1/4=100
M:6/8
K:Eb
V:1 treble nm="Grand Piano, Soprano"
V:2 bass nm="Choir Pad, He Saved Me (Maynard)"
V:3 bass 
V:1
 B, E2 [B,E][EG][EB] | [Ec] [EB]2- [EB] [EG]2 | B, E2 [B,E][EG][EB] | [Ec] [EB]2- [EB] F2 | %4
w: By~James~B.~Franklin * * * *||||
 [EG][DA]>[DA] [DA][FA][EG] | [DF][EG]>[EG] [FA][GB][GB] | [Ge] [Fd]2- [Fd] [Ec]2- | %7
w: |||
 [Ec] [DB]2- [DB]2- [DB]/ z/ | z [EB]2- [EB] [EG]2- | [EG] [GB]2- [GB]2- [GB]/ z/ | %10
w: |||
 z [Ge]2- [Ge] [Ac]2- | [Ac] [GB]2- [GB]2- [GB]/ z/ | z [Ac]>[Ac] [Ac][EA][EA] | %13
w: |||
 [Ac][GB]>[GB] [GB][EG][EG] | [Ge] [Fd]2- [Fd] [Ec]2- | [Ec] [DB]2- [DB]2- [DB]/ z/ | %16
w: |||
 z [EB]2- [EB] [EG]2- | [EG] [GB]2- [GB]2- [GB]/ z/ | z [Be]2- [Be] [Af]2- | %19
w: |||
 [Af] [Ge]2- [Ge]2- [Ge]/ z/ | z [Ge]>[Ge] [Ge][Ac][Ac] | [Ac][GB]>[GB] [GB][EG]E | %22
w: |||
[Q:1/4=90] [EA] [EG]2- [EG] [DF]2- | [DF] E2- E3- | E3 z3 |] %25
w: |||
V:2
 B,, E,2 G,B,G, | A, G,2- G, B,2 | B,, E,2 G,A,G, | A, G,2- G, B,2 | B,B,>B, B,B,B, | %5
 B,B,>B, B,EE | B, B,2- B, =A,2- | A, B,2- B, _A,2 | z G,G, G,B,B, | B,[K:treble]EE E E2 | %10
 z EE EEE | EEE E E2 | z E>E ECC | EE>E E[K:bass]B,B, | B, B,2- B, B,2- | B, B,2- B,/ z/ A,2 | %16
 z G,G, G,B,B, | B,[K:treble]EE E E2 | z EE E[K:bass]B,B, | B,B,B, B, B,2 | z[K:treble] E>E EEE | %21
 EE>E E[K:bass]B,B, | C B,2- B,/ z/ A,2- | A, G,2- G,3- | G,3 z3 |] %25
V:3
 z3 E,E,E, | E, E,2- E, E,2 | z3 E,E,E, | E, E,2- E, D,2 | E,F,>F, F,B,,B,, | B,,E,>E, E,E,E, | %6
 E, F,2- F, F,2- | F, B,,2- B,,2- B,,/ z/ | z E,E, E,E,E, | E,E,G, B, E,2 | z C,C, C,A,A, | %11
 A,E,E, E, E,2 | z A,>A, A,A,A, | A,E,>E, E,E,E, | E, F,2- F, F,2- | F, B,,2- B,,2- B,,/ z/ | %16
 z E,E, E,E,E, | E,E,G, B, E,2 | z G,G, .G,3 | B,,E,E, E, E,2 | z C,>C, C,A,A, | A,E,>E, E,E,G, | %22
 .A,3 z B,,2- | B,, E,2- E,3- | E,3 z3 |] %25

